!!!COM:	de Orto, Marbrianus
!!!CDT:	~1460///-1529//
!!!OPR:	Missa Mi mi (Missa Petite camusette)
!!!ONM:	1
!!!OTL:	Kyrie
!!!AGN:	Mass; Kyrie
!!!SCT:	Ort1005a
!!!SCA:	Ort1005a
!!!voices-OPR:	4
!!!voices:	4
**kern	**text	**kern	**text	**kern	**text	**kern	**text
*staff4	*staff4	*staff3	*staff3	*staff2	*staff2	*staff1	*staff1
*Ivox	*	*Ivox	*	*Ivox	*	*Ivox	*
*I"Bassus	*	*I"Tenor	*	*I"Altus	*	*I"Superius	*
*I'B	*	*I'T	*	*I'A	*	*I'S	*
*>[A,B,C]	*>[A,B,C]	*>[A,B,C]	*>[A,B,C]	*>[A,B,C]	*>[A,B,C]	*>[A,B,C]	*>[A,B,C]
*>A	*>A	*>A	*>A	*>A	*>A	*>A	*>A
*clefF4	*	*clefGv2	*	*clefGv2	*	*clefG2	*
*k[]	*	*k[]	*	*k[]	*	*k[]	*
*M3/1	*	*M3/1	*	*M3/1	*	*M3/1	*
*met(O)	*	*met(O)	*	*met(O)	*	*met(O)	*
!!section: Kyrie I
!!!OMD: Kyrie I
=1-	=1-	=1-	=1-	=1-	=1-	=1-	=1-
0.r	.	1r	.	2.e\	Ky-	2.e/	Ky-
.	.	.	.	4A/	.	4f/	.
.	.	1r	.	2e\	.	2g/	.
.	.	.	.	2f\	-ri-	1a	.
.	.	2.E/	Ky-	1e	-e	.	.
.	.	.	.	.	.	2g/	.
.	.	4F/	.	.	.	.	.
=2	=2	=2	=2	=2	=2	=2	=2
0.r	.	2G/	.	2r	.	2.e/	.
.	.	1A	.	1c	e-	.	.
.	.	.	.	.	.	4d/	.
.	.	.	.	.	.	2e/	.
.	.	2D/	-ri-	2d\	.	2f/	-ri-
.	.	2A/	-e	2c\	-lei-	1e	-e
.	.	2E/	e-	[2B\	.	.	.
=3	=3	=3	=3	=3	=3	=3	=3
2.E\	Ky-	2.G/	-lei-	2B\]	.	2r	.
.	.	.	.	1e	.	2c/	Ky-
4AA/	.	4A/	.	.	.	.	.
2E\	.	2G/	.	.	.	2B/	.
2F\	-ri-	1A	.	2d\	.	2A/	-ri-
1E	-e	.	.	[1e	-son,	1B	-e
.	.	2G#i/	.	.	.	.	.
=4	=4	=4	=4	=4	=4	=4	=4
0.r	.	2A/	-son,	1e]	.	2A/	.
.	.	1E	e-	.	.	2c/	e-
.	.	.	.	2r	.	2B/	.
.	.	2G/	-lei-	1B	Ky-	1e	-lei-
.	.	1F	.	.	.	.	.
.	.	.	.	2A/	.	2d/	.
=5	=5	=5	=5	=5	=5	=5	=5
2.E\	Ky-	1E	-son,	2B\	.	2e/	.
.	.	.	.	4G/	.	1c	.
4AA/	.	.	.	4A/	.	.	.
2E\	.	1r	.	2G/	.	.	.
2F\	-ri-	.	.	1A	.	1d	.
1E	-e,	2r	.	.	.	.	.
.	.	[2G/	Ky-	2G/	-ri-	2c/	.
=6	=6	=6	=6	=6	=6	=6	=6
0.r	.	4G/]	.	2B\	-e,	2d/	.
.	.	4F/	.	.	.	.	.
.	.	2D/	.	2d\	.	1f	.
.	.	2.A/	.	2c\	.	.	.
.	.	.	.	1e	e-	2e/	.
.	.	4G/	-ri-	.	.	.	.
.	.	1F	-e	.	.	1a	.
.	.	.	.	2d\	.	.	.
=7	=7	=7	=7	=7	=7	=7	=7
2.E\	Ky-	2c\	e-	1e	.	2g/	.
.	.	4B\	.	.	.	2cc\	.
4AA/	.	4A/	.	.	.	.	.
2E\	.	2G/	-lei-	4e\	-lei-	2b\	.
.	.	.	.	4d\	.	.	.
2F\	-ri-	2A/	.	2d\	.	1a	.
1E	-e,	1B	-son,	1e	-son,	.	.
.	.	.	.	.	.	2g#i/	.
=8	=8	=8	=8	=8	=8	=8	=8
0.r	.	2.A/	Ky-	2r	.	1a	-son,
.	.	.	.	2A/	Ky-	.	.
.	.	4D/	.	.	.	.	.
.	.	2G/	.	2B\	.	1r	.
.	.	2A/	-ri-	2c\	.	.	.
.	.	1G	-e,	1d	-ri-	2.b\	Ky-
.	.	.	.	.	.	4e/	.
=9	=9	=9	=9	=9	=9	=9	=9
2.E\	Ky-	1r	.	1e	-e,	2b\	.
.	.	.	.	.	.	2cc\	.
4AA/	.	.	.	.	.	.	.
2E\	.	1r	.	2r	.	4b\	.
.	.	.	.	.	.	4g/	.
2F\	-ri-	.	.	2d\	Ky-	2a/	-ri-
1E	-e,	1B	e-	1e	-ri-	2.g/	-e
.	.	.	.	.	.	4c/	e-
=10	=10	=10	=10	=10	=10	=10	=10
0.r	.	1.c	-lei-	2E/	-e,	2g/	.
.	.	.	.	2F/	e-	2a/	.
.	.	.	.	4E/	-lei-	4g/	-lei-
.	.	.	.	2C/	.	4e/	.
.	.	2d\	.	.	.	2f/	.
.	.	.	.	4BB/	.	.	.
.	.	2.e\	.	4C/	.	2.e/	.
.	.	.	.	4D/	.	.	.
.	.	.	.	4E/	.	.	.
.	.	8d\L	.	4F/	.	4A/	.
.	.	8c\J	.	.	.	.	.
=11	=11	=11	=11	=11	=11	=11	=11
2.E\	Ky-	2B\	-son,	2.G/	.	2.e/	.
.	.	2c\	e-	.	.	.	.
4AA/	.	.	.	4A/	.	4f/	.
2E\	.	4B\	-lei-	4G/	.	4e/	.
.	.	4G/	.	4c\	.	4c/	.
2F\	-ri-	2A/	.	2A/	.	2d/	.
1E	-e,	2G/	.	2B\	.	2e/	.
.	.	[2C/	.	2c\	.	[2g/	.
=12	=12	=12	=12	=12	=12	=12	=12
0.r	.	2C/]	.	1E	.	4g/]	.
.	.	.	.	.	.	4f/	.
.	.	1c	.	.	.	2e/	-i-
.	.	.	.	2F/	.	1d	-son,
.	.	2B\	.	2G/	-i-	.	.
.	.	2.c\	.	2A/	-son,	2c/	e-
.	.	.	.	2c\	e-	[2e/	-lei-
.	.	4B\	-i-	.	.	.	.
=13	=13	=13	=13	=13	=13	=13	=13
2.E\	e-	2G/	-son,	4B\	-lei-	4e/]	.
.	.	.	.	4E/	.	4f/	.
.	.	2r	.	4B\	.	4g/	.
4AA/	.	.	.	4c\	.	4a/	.
2E\	-lei-	2E/	e-	2B\	.	2g/	.
2F\	-i-	2A/	.	2A/	-i-	2.cc\	.
1E	-son,	2G/	.	1e	-son,	.	.
.	.	.	.	.	.	4b\	.
.	.	[2c\	-lei-	.	.	2g/	.
=14	=14	=14	=14	=14	=14	=14	=14
0.r	.	4c\]	.	2e\	e-	2.a/	.
.	.	4B\	.	.	.	.	.
.	.	1A	.	1c	-lei-	.	.
.	.	.	.	.	.	4g/	.
.	.	.	.	.	.	4f/	.
.	.	.	.	.	.	4e/	.
.	.	2G/	.	1B	.	1e	.
.	.	1F	-i-	.	.	.	.
.	.	.	.	2A/	-i-	2d/	-i-
=15	=15	=15	=15	=15	=15	=15	=15
0.E 0.Gl	son.	0.El	-son.-	0.Bl	-son.-	0.el	-son.-
!!LO:LB:i:g=z
=16||	=16||	=16||	=16||	=16||	=16||	=16||	=16||
*>B	*>B	*>B	*>B	*>B	*>B	*>B	*>B
*clefF4	*	*clefGv2	*	*clefGv2	*	*clefG2	*
*k[]	*	*k[]	*	*k[]	*	*k[]	*
*M2/1	*	*M2/1	*	*M2/1	*	*M2/1	*
*met(C|)	*	*met(C|)	*	*met(C|)	*	*met(C|)	*
!!section: Christe
!!!OMD: Christe
0r	.	0E	-Chri-	[0B	-Chri-	0r	.
=17	=17	=17	=17	=17	=17	=17	=17
0r	.	0E	-ste,	1B]	.	[0b	-Chri-
.	.	.	.	1E	.	.	.
=18	=18	=18	=18	=18	=18	=18	=18
[0E	Chri-	0r	.	1B	.	1b]	.
.	.	.	.	1c	.	1e	.
=19	=19	=19	=19	=19	=19	=19	=19
1E]	.	0r	.	1B	.	1b	.
1AA	.	.	.	[1e	.	1cc	.
=20	=20	=20	=20	=20	=20	=20	=20
1E	.	0r	.	2e\]	.	2b\	.
.	.	.	.	4d\	.	1cc	.
.	.	.	.	4c\	.	.	.
1F	.	.	.	1d	.	.	.
.	.	.	.	.	.	4b\	.
.	.	.	.	.	.	4a/	.
=21	=21	=21	=21	=21	=21	=21	=21
0E	-ste,	[0B	Chri-	1e	-ste	1g	-ste
.	.	.	.	1E	e-	2r	.
.	.	.	.	.	.	[2g/	e-
=22	=22	=22	=22	=22	=22	=22	=22
0r	.	1B]	.	2.G/	-lei-	2g/]	.
.	.	.	.	.	.	2d/	.
.	.	.	.	4A/	.	.	.
.	.	1E	.	1B	.	1g	.
=23	=23	=23	=23	=23	=23	=23	=23
[0E	Chri-	1B	.	1G	.	2.e/	-lei-
.	.	.	.	.	.	4f/	.
.	.	1c	.	1C	-son	2g/	.
.	.	.	.	.	.	2a/	.
=24	=24	=24	=24	=24	=24	=24	=24
1E]	.	1B	.	2r	.	1g	.
.	.	.	.	2G/	Chri-	.	.
1AA	.	1c	.	1A	.	4c/	.
.	.	.	.	.	.	4d/	.
.	.	.	.	.	.	4e/	.
.	.	.	.	.	.	4f/	.
=25	=25	=25	=25	=25	=25	=25	=25
1E	.	1B	.	2B\	.	1g	.
.	.	.	.	1e	.	.	.
1F	.	1A	.	.	.	[1a	.
.	.	.	.	2d\	.	.	.
=26	=26	=26	=26	=26	=26	=26	=26
0E	-ste,	0B	-ste,	1e	-ste,	2a/]	.
.	.	.	.	.	.	4g#i/	.
.	.	.	.	.	.	4f#i/	.
.	.	.	.	2r	.	1g#i	.
.	.	.	.	2e\	e-	.	.
=27	=27	=27	=27	=27	=27	=27	=27
0r	.	0A	e-	2f\	-lei-	0a	-son,
.	.	.	.	1e	.	.	.
.	.	.	.	4d\	.	.	.
.	.	.	.	4c\	.	.	.
=28	=28	=28	=28	=28	=28	=28	=28
[0E	Chri-	2.G/	-lei-	1B	.	0r	.
.	.	4A/	.	.	.	.	.
.	.	2B\	.	2G/	.	.	.
.	.	[2A/	.	2c\	.	.	.
=29	=29	=29	=29	=29	=29	=29	=29
1E]	.	2A/]	.	1B	.	0r	.
.	.	2G#i/	.	.	.	.	.
1AA	.	2A/	.	2c\	.	.	.
.	.	[2c\	.	2A/	.	.	.
=30	=30	=30	=30	=30	=30	=30	=30
1E	.	2c\]	.	1G	-son,	0r	.
.	.	2B\	.	.	.	.	.
1F	.	2A/	.	1r	.	.	.
.	.	[2c\	.	.	.	.	.
=31	=31	=31	=31	=31	=31	=31	=31
0E	-ste,	2c\]	.	0r	.	1r	.
.	.	4B\	.	.	.	.	.
.	.	4A/	.	.	.	.	.
.	.	1G	-son,	.	.	[1b	Chri-
=32	=32	=32	=32	=32	=32	=32	=32
0r	.	2r	.	0r	.	2b\]	.
.	.	2c\	Chri-	.	.	2e/	.
.	.	2d\	.	.	.	2b\	.
.	.	[2e\	.	.	.	[2cc\	.
=33	=33	=33	=33	=33	=33	=33	=33
[0E	Chri-	2e\]	.	1r	.	2cc\]	.
.	.	4d\	.	.	.	4b\	.
.	.	4c\	.	.	.	4a/	.
.	.	2B\	.	[1e	Chri-	2g/	.
.	.	2c\	.	.	.	[2a/	.
=34	=34	=34	=34	=34	=34	=34	=34
1E]	.	1B	.	1e]	.	2a/]	.
.	.	.	.	.	.	2g#i/	.
1AA	.	1A	.	1e	-ste,	1a	-ste,
=35	=35	=35	=35	=35	=35	=35	=35
1E	.	2G/	.	1B	e-	1r	.
.	.	4F/	.	.	.	.	.
.	.	4E/	.	.	.	.	.
1F	.	1D	-ste,	[1d	-lei-	1a	e-
=36	=36	=36	=36	=36	=36	=36	=36
0E	-ste,	0r	.	2d\]	.	0g	-lei-
.	.	.	.	4c\	.	.	.
.	.	.	.	4B\	.	.	.
.	.	.	.	1c	.	.	.
=37	=37	=37	=37	=37	=37	=37	=37
0r	.	0D	e-	0d	.	0f	.
=38	=38	=38	=38	=38	=38	=38	=38
[0E	e-	1E	-lei-	1B	.	2.e/	.
.	.	.	.	.	.	4f/	.
.	.	1C	.	1c	.	2g/	.
.	.	.	.	.	.	2a/	.
=39	=39	=39	=39	=39	=39	=39	=39
1E]	.	1G	.	1B	.	1g	.
1AA	.	1A	.	1A	-son,	1cc	.
=40	=40	=40	=40	=40	=40	=40	=40
1E	-lei-	1G	.	0r	.	2b\	.
.	.	.	.	.	.	2g/	.
1F	.	2.c\	.	.	.	1a	.
.	.	4A/	.	.	.	.	.
=41	=41	=41	=41	=41	=41	=41	=41
0E	-son,	1B	-son,	1E	e-	1g	-son,
.	.	2r	.	2.G/	-lei-	2r	.
.	.	2B\	e-	.	.	[2e/	e-
.	.	.	.	4A/	.	.	.
=42	=42	=42	=42	=42	=42	=42	=42
0r	.	1E	.	2B\	.	2e/]	.
.	.	.	.	1A	.	4d/	.
.	.	.	.	.	.	4c/	.
.	.	1E	-lei-	.	.	1B	-lei-
.	.	.	.	2G#i/	.	.	.
=43	=43	=43	=43	=43	=43	=43	=43
0AAl	son.	2.F/	.	0Al	-son.-	0Al	-son.
.	.	4E/	.	.	.	.	.
.	.	1El	-son.-	.	.	.	.
!!LO:LB:i:g=z
=44||	=44||	=44||	=44||	=44||	=44||	=44||	=44||
*>C	*>C	*>C	*>C	*>C	*>C	*>C	*>C
*clefF4	*	*clefGv2	*	*clefGv2	*	*clefG2	*
*k[]	*	*k[]	*	*k[]	*	*k[]	*
*M3/1	*	*M3/1	*	*M3/1	*	*M3/1	*
*met(O|)	*	*met(O|)	*	*met(O|)	*	*met(O|)	*
!!section: Kyrie II
!!!OMD: Kyrie II
1.GG	Ky-	2.G/	-Ky-	1d	-Ky-	1.B	Ky-
.	.	4F/	.	.	.	.	.
.	.	2E/	.	2G/	.	.	.
2GG/	-ri-	2D/	.	1d	.	2B/	-ri-
1GG	-e,	1G	-ri-	.	.	1B	-e
.	.	.	.	2d\	-ri-	.	.
=45	=45	=45	=45	=45	=45	=45	=45
2.G\	e-	1C	-e	2.e\	-e,	2.c/	lei-
4F\	.	.	.	4d\	.	4d/	.
2E\	.	2G/	e-	2c\	.	2e/	.
2D\	.	2A/	.	2d\	.	2f/	.
1G	.	1B	.	2G/	.	1d	.
.	.	.	.	2d\	e-	.	.
=46	=46	=46	=46	=46	=46	=46	=46
1.C	-lei-	2.c\	-lei-	1.e	-lei-	1c	-son,
.	.	4B\	.	.	.	.	.
.	.	2A/	.	.	.	2r	.
2C/	.	2G/	.	2e\	.	2g/	e-
1C	-son,	2A/	.	1e	-son,	2.cc\	-lei-
.	.	2G/	.	.	.	.	.
.	.	.	.	.	.	4b\	.
=47	=47	=47	=47	=47	=47	=47	=47
2.c\	Ky-	2F/	.	2r	.	2a/	.
.	.	2E/	.	2e\	Ky-	2g/	.
4B\	.	.	.	.	.	.	.
2A\	.	2F/	.	2d\	.	2a/	.
2G\	.	2E/	.	2e\	-ri-	2b\	.
1c	-ri-	1C	.	1g	-e,	1e	-son,
=48	=48	=48	=48	=48	=48	=48	=48
0F	-e,	1c	.	2.f\	e-	0a	e-
.	.	.	.	4e\	.	.	.
.	.	1A	-son,	2d\	.	.	.
.	.	.	.	2c\	.	.	.
1r	.	1r	.	2d\	.	2f/	-lei-
.	.	.	.	2e\	.	2g/	.
=49	=49	=49	=49	=49	=49	=49	=49
2.F\	e-	1c	Ky-	1.f	-lei-	1c	-son,
4E\	.	.	.	.	.	.	.
2D\	.	2B\	-ri-	.	.	1r	.
2C/	.	2.c\	-e,	2.e\	.	.	.
1E	.	.	.	.	.	1r	.
.	.	4B\	.	4d\	.	.	.
.	.	2G/	.	4c\	.	.	.
.	.	.	.	4B\	.	.	.
=50	=50	=50	=50	=50	=50	=50	=50
1.AA	-lei-	2A/	e-	1c	-son,	2.e/	Ky-
.	.	2.A/	-lei-	.	.	.	.
.	.	.	.	.	.	4d/	.
.	.	.	.	2r	.	4c/	.
.	.	4G/	.	.	.	4B/	-ri-
2AA/	.	4F/	.	2c\	Ky-	2A/	-e,
.	.	4E/	.	.	.	.	.
1AA	-son,	2F/	.	1A	-ri-	2r	.
.	.	2E/	.	.	.	[2a/	e-
=51	=51	=51	=51	=51	=51	=51	=51
2.A\	Ky-	2F/	.	1c	-e,	4a/]	.
.	.	.	.	.	.	4g/	.
.	.	2C/	.	.	.	4f/	.
4G\	.	.	.	.	.	4e/	.
2F\	.	2D/	.	1r	.	2a/	.
2E\	.	2G/	.	.	.	2.g/	-lei-
1A	-ri-	1D	-son,	1d	Ky-	.	.
.	.	.	.	.	.	4e/	.
.	.	.	.	.	.	2f/	.
=52	=52	=52	=52	=52	=52	=52	=52
2.E\	-e,	2r	.	2c\	.	2.g/	.
.	.	2.G/	Ky-	2B\	.	.	.
4D\	.	.	.	.	.	4f/	.
2C/	.	.	.	2c\	-ri-	2e/	.
.	.	4A/	.	.	.	.	.
2BB/	.	1B	.	2d\	-e,	2d/	.
1E	e-	.	.	2r	.	2.G/	.
.	.	2c\	-ri-	2e\	e-	.	.
.	.	.	.	.	.	4A/	.
=53	=53	=53	=53	=53	=53	=53	=53
2.D\	-lei-	1F	-e,	2f\	-lei-	4B/	.
.	.	.	.	.	.	4c/	.
.	.	.	.	1d	.	1d	.
4C/	.	.	.	.	.	.	.
2BB/	.	2G/	e-	.	.	.	.
2AA/	.	2A/	.	2c\	.	2e/	.
1D	.	2.F#/	-lei-	1A	-son,	4f/	.
.	.	.	.	.	.	4e/	.
.	.	.	.	.	.	4d/	.
.	.	4E/	.	.	.	4c/	.
=54	=54	=54	=54	=54	=54	=54	=54
1GG	-son,	1.G	.	1d	e-	0B	-son,
1.G	Ky-	.	.	1e	.	.	.
.	.	2E/	.	.	.	.	.
.	.	1B	.	2d\	-lei-	1r	.
2E\	-ri-	.	.	[2e\	.	.	.
=55	=55	=55	=55	=55	=55	=55	=55
1E	-e,	1G	.	2e\]	.	1.b	Ky-
.	.	.	.	2e\	.	.	.
1B	.	1E	.	0e	-son,	.	.
.	.	.	.	.	.	2g/	-ri-
1c	.	1C	-son,	.	.	1g	-e,
=56	=56	=56	=56	=56	=56	=56	=56
1F	.	1r	.	2.f\	e-	1cc	e-
.	.	.	.	4e\	.	.	.
1r	.	1D	Ky-	2.d\	-lei-	2b\	-lei-
.	.	.	.	.	.	1a	.
.	.	.	.	4c\	.	.	.
1r	.	1E	.	1B	.	.	.
.	.	.	.	.	.	2g#i/	.
=57	=57	=57	=57	=57	=57	=57	=57
1D	Ky-	2.F/	.	2.A/	.	2.a/	.
.	.	4G/	-ri-	4B\	.	4g/	.
2C/	.	0A	-e,	2c\	.	4f/	.
.	.	.	.	.	.	4e/	.
2D\	-ri-	.	.	2F/	.	2.f/	.
1AA	-e,	.	.	2c\	.	.	.
.	.	.	.	.	.	4e/	.
.	.	.	.	2A/	.	2c/	.
=58	=58	=58	=58	=58	=58	=58	=58
1r	.	1E	e-	2B\	.	1g	.
.	.	.	.	2c\	.	.	.
1r	.	2D/	-lei-	2d\	.	2f/	.
.	.	2E/	.	1B	.	1e	.
2r	.	1F	.	.	.	.	.
2D\	e-	.	.	2A/	.	2d/	.
=59	=59	=59	=59	=59	=59	=59	=59
2AA/	.	[0.El	-son.-	2.c\	.	[0.el	-son,
2.C/	-lei-	.	.	.	.	.	.
.	.	.	.	4B\	.	.	.
.	.	.	.	4A/	.	.	.
4BB/	.	.	.	4G/	.	.	.
2AA/	.	.	.	2c\	.	.	.
2GG/	.	.	.	2B\	.	.	.
2AA/	.	.	.	2A/	.	.	.
=60	=60	=60	=60	=60	=60	=60	=60
0.EEl	-son.-	0.E]	.	0.Bl	-son,	0.e]	.
==	==	==	==	==	==	==	==
*-	*-	*-	*-	*-	*-	*-	*-
!!!RDF**kern: l=long note in original notation
!!!RDF**kern: i=editorial accidental
!!!ENC:	Jesse Rodin 8/9/2013
!!!END:	2013/08/09/
!!!EED:	Jesse Rodin
!!!EEV:	2013/08/10/
!!!ONB:	Translated from MusicXML and edited on 2013/08/10/ by Craig Sapp
!!muse2ps: T^@{OPR}^u^@{ONM}{. }@{OTL}^C^@{COM}^i2I150v85,85,85,130c150
